X: 854
T: Stagger the Buck
N:"Collected by McFadden"
B:O'Neill's 854
Z:Transcribed by Dan G. Petersen, dangp@post6.tele.dk
M:6/8
L:1/8
K:G
D|GBG AGE|Tc2c TB2d|GBG AGE|EAA AGE|
GBG AGE|(B/c/d)(e/f/ {a}g)fe|dBG AGE|(DG)G G2:|
G|Gge dBG|Tc2c TB2d|Gge dBG|EAA AGE|
Gge dBG|(B/c/d)(e/f/ {a}g)fe|dBG AGE|(DG)G G2:|


